icons/svg/background-color-accent.svg

<svg width="24" height="24" viewBox="0 0 24 24" fill="none" xmlns="http://www.w3.org/2000/svg">
<path fill-rule="evenodd" clip-rule="evenodd" d="M3 14.95V13.27H3.63346C3.8011 13.433 3.96391 13.6006 4.11912 13.7324C4.42626 13.9931 4.8153 14.2727 5.32297 14.4377C5.68508 14.5553 6.06156 14.6125 6.43764 14.6092C6.79315 14.6061 7.14831 14.5489 7.49062 14.4377C7.9983 14.2727 8.38734 13.9931 8.69448 13.7324C8.97354 13.4955 9.2772 13.1918 9.58933 12.8796L10.7744 11.6945C9.45192 14.8139 12.8726 17.8925 15.8584 16.1686C17.5676 15.1818 18.1533 12.9962 17.1664 11.2869C17.1307 11.225 17.0912 11.1654 17.0481 11.1083L15.304 8.7954C14.9545 8.33204 14.3981 8.07205 13.8185 8.1013C13.7242 8.10606 13.6312 8.11839 13.5403 8.13784C13.524 7.69722 13.3419 7.27802 13.0289 6.96511L12.29 6.24867V4.75H16.7C18.3802 4.75 19.2202 4.75 19.862 5.07698C20.4265 5.3646 20.8854 5.82354 21.173 6.38803C21.5 7.02976 21.5 7.86984 21.5 9.55V14.95C21.5 16.6302 21.5 17.4702 21.173 18.112C20.8854 18.6765 20.4265 19.1354 19.862 19.423C19.2202 19.75 18.3802 19.75 16.7 19.75H7.8C6.11984 19.75 5.27976 19.75 4.63803 19.423C4.07354 19.1354 3.6146 18.6765 3.32698 18.112C3 17.4702 3 16.6302 3 14.95Z" fill="currentColor"/>
</svg>

<svg xmlns="http://www.w3.org/2000/svg" width="24" height="24" fill="none" viewBox="0 0 24 24"><path fill="currentColor" fill-rule="evenodd" d="M3 14.95v-1.68h.633c.168.163.33.33.486.462.307.261.696.54 1.204.706a3.5 3.5 0 0 0 2.168 0c.507-.165.896-.445 1.203-.706.28-.236.583-.54.895-.852l1.185-1.186c-1.322 3.12 2.099 6.198 5.084 4.475a3.574 3.574 0 0 0 1.308-4.882 2 2 0 0 0-.118-.179l-1.744-2.313a1.75 1.75 0 0 0-1.764-.657 1.75 1.75 0 0 0-.511-1.173l-.739-.716V4.75h4.41c1.68 0 2.52 0 3.162.327a3 3 0 0 1 1.311 1.311c.327.642.327 1.482.327 3.162v5.4c0 1.68 0 2.52-.327 3.162a3 3 0 0 1-1.311 1.311c-.642.327-1.482.327-3.162.327H7.8c-1.68 0-2.52 0-3.162-.327a3 3 0 0 1-1.311-1.311C3 17.47 3 16.63 3 14.95" clip-rule="evenodd"/></svg>
